X:1
T: Lady Isabella Wemyss' Strathspey
C: by Willam Marshall
N: arr. T. Traub 4-8-2007
R: Strathspey
M: 4/4
K: D
L: 1/8
|:\
"D" D2 E>F "G"AB B,2 | "D"A,DDF "A"E2 "D"DA, |\
"D"DDEF "G"AB B,2 | "D"d>BAF "A"E2 "D"D2 :|
"D"A>df>d "G"g/f/e/d/ B2 | "D"Addf "A"e2 "D"d>A |\
"G"B>d "D"B/A/G/F/ "Em" G/F/E/D/ "G"B,2 | "D"A,>D DF "A"E2 "D"D2 |
"D"A>df>d "G"g/f/e/d/ B2 | "D"Addf "A"e2 "D"d>A |\
"G"B/d/c/d/ "D"B/A/G/F/ "Em"G/F/E/D/ "G"B,2 | "D"d>B A<F "A"E2 "D"D2 |]
